src/static/logout.svg

<svg
  width="24"
  height="24"
  viewBox="0 0 24 24"
  fill="none"
  xmlns="http://www.w3.org/2000/svg"
>
  <path
    fill-rule="evenodd"
    clip-rule="evenodd"
    d="M2.25012 5C2.25012 3.48122 3.48134 2.25 5.00012 2.25H10.2501C11.7689 2.25 13.0001 3.48122 13.0001 5V6.8C13.0001 6.91046 12.9106 7 12.8001 7H11.7001C11.5897 7 11.5001 6.91046 11.5001 6.8V5C11.5001 4.30964 10.9405 3.75 10.2501 3.75H5.00012C4.30977 3.75 3.75012 4.30964 3.75012 5V19C3.75012 19.6904 4.30977 20.25 5.00012 20.25H10.2501C10.9405 20.25 11.5001 19.6904 11.5001 19V17.2C11.5001 17.0895 11.5897 17 11.7001 17H12.8001C12.9106 17 13.0001 17.0895 13.0001 17.2V19C13.0001 20.5188 11.7689 21.75 10.2501 21.75H5.00012C3.48134 21.75 2.25012 20.5188 2.25012 19V5Z"
    fill="#FF5A76"
  />
  <path
    d="M9.26782 11.2666C8.85361 11.2666 8.51782 11.6024 8.51782 12.0166C8.51782 12.4308 8.85361 12.7666 9.26782 12.7666L9.26782 11.2666ZM21.3275 12.7666C21.7417 12.7666 22.0775 12.4308 22.0775 12.0166C22.0775 11.6024 21.7417 11.2666 21.3275 11.2666L21.3275 12.7666ZM16.4718 15.9698C16.179 16.2628 16.1791 16.7376 16.4721 17.0305C16.7651 17.3233 17.2399 17.3232 17.5327 17.0302L16.4718 15.9698ZM21.4999 12L22.0304 12.5302C22.3231 12.2374 22.3231 11.7627 22.0304 11.4698L21.4999 12ZM17.5327 6.96981C17.2399 6.67684 16.7651 6.67671 16.4721 6.96953C16.1791 7.26235 16.179 7.73722 16.4718 8.03019L17.5327 6.96981ZM19.2511 14.25L19.7816 14.7802L19.7816 14.7802L19.2511 14.25ZM9.26782 12.7666L21.3275 12.7666L21.3275 11.2666L9.26782 11.2666L9.26782 12.7666ZM16.4718 8.03019L20.9695 12.5302L22.0304 11.4698L17.5327 6.96981L16.4718 8.03019ZM17.5327 17.0302L19.7816 14.7802L18.7206 13.7198L16.4718 15.9698L17.5327 17.0302ZM19.7816 14.7802L22.0304 12.5302L20.9695 11.4698L18.7206 13.7198L19.7816 14.7802Z"
    fill="#FF5A76"
  />
</svg>

<svg xmlns="http://www.w3.org/2000/svg" width="24" height="24" fill="none"><path fill="#FF5A76" fill-rule="evenodd" d="M2.25 5A2.75 2.75 0 0 1 5 2.25h5.25A2.75 2.75 0 0 1 13 5v1.8a.2.2 0 0 1-.2.2h-1.1a.2.2 0 0 1-.2-.2V5c0-.69-.56-1.25-1.25-1.25H5c-.69 0-1.25.56-1.25 1.25v14c0 .69.56 1.25 1.25 1.25h5.25c.69 0 1.25-.56 1.25-1.25v-1.8c0-.11.09-.2.2-.2h1.1c.11 0 .2.09.2.2V19a2.75 2.75 0 0 1-2.75 2.75H5A2.75 2.75 0 0 1 2.25 19V5Z" clip-rule="evenodd"/><path fill="#FF5A76" d="M9.268 11.267a.75.75 0 0 0 0 1.5v-1.5Zm12.06 1.5a.75.75 0 0 0 0-1.5v1.5Zm-4.856 3.203a.75.75 0 0 0 1.06 1.06l-1.06-1.06ZM21.5 12l.53.53a.75.75 0 0 0 0-1.06l-.53.53Zm-3.967-5.03a.75.75 0 1 0-1.061 1.06l1.06-1.06Zm1.718 7.28.53.53-.53-.53Zm-9.983-1.483h12.06v-1.5H9.268v1.5Zm7.204-4.737 4.497 4.5 1.061-1.06-4.497-4.5-1.061 1.06Zm1.06 9 2.25-2.25-1.061-1.06-2.25 2.25 1.062 1.06Zm2.25-2.25 2.248-2.25-1.06-1.06-2.25 2.25 1.062 1.06Z"/></svg>
